X:1
T: Albert's Hornpipe
C:
R:Reel
I:speed 232
Q:232
K:C
M:4/4
L:1/8
|:ef|fe ce dB GB|cB cA G2 EF|Gc Bc Ad ^cd|B2 G2 G2 ef|
ge ce dB GB|cB cA G2 cB|AB cd ec dB|c2 c2 c2:|
|:Bc|de fd BG AB|cB cd e2 de|fg ag fe dc|B2 d2 d2 ef|
ge ce dB GB|cB cA G2 cB|AB cd ec dB|c2 c2 c2:|
